X:288
T:Seamus O'Shanahan's
R:jig
M:6/8
L:1/8
D:Altan: Harvest Storm
C:Paul O'Shaughnessy
K:Am
"Am"EAA ABc | "G"BGG GBd | "C"edc Bcd | c3 "Em"BGF |
"Am"~E3 ABc | "G"BGG GBd | "F"edc "E"Bcd|1 "G"cAG "Am"A3 :|2 "G"cAG "Am"ABc||
"Dm"d2f faf | "Am"ecA Adc | "E"B2d dcB | "Am"cee ecA |
"Dm"dff faf | "Am"ecA Adc | "E"Bcd cBG | "Am"ABA ABc |
"Dm"d2f faf | "Am"ecA Adc | "E"B3 d3 | "Am"cee ecA |
"Dm"dfg agf | "Am"ecA Adc | "E"Bcd cBG | "F"AcA "G"BGF|]
